X:342
T:Sancho Pancho. (p)1695.PLFD.342
M:3/4
L:1/4
Q:3/4=60
S:Playford, Dancing Master,9th Ed,1695.pp
O:England
H:1695.
Z:Chris Partington.
K:G
z2G|GAB|Bcd|ded|(AB)c|(B/c/d){e/4f/4}g|(g<d)B|
c>ed|BG2|z2A|Bcd|dcB|cde|efg|
(f/g/)aa/d/|(de)f|e>fg|fd2|z2d|efg|dcB|cde|
edc|BAG|GAG|Bcd|dcB|ABc|cde|edc|Bdg|
(g<d)(d/B)|(B<G)D|G/A/Bc|d2(e/4f/4g/)|g<dB|(B/c/)dG|B/c/dg|f2A|
GBd|Bdg|c/B/c/d/e/f/|gfe|dBg|d>cB|AG2|]
